X: 41763
T: Vargus's
R: jig
M: 6/8
K: Gmajor
|:A|B/c/dB GzE|D2G G2A|BdB ABG|FAd d^cd|
B/c/dB GFE|DGF G2 A|BdB Adc|BGG G2:|
B/c/|:dgg gfe|edc BAG|e2a a2g|
[1fef dBc|dgg gfe|edc BAG|B2d Adc|BGF GBc:|
[2f/g/af dBc|dgg gfg|egg gfg|B/c/dB ABc|BGF G2||

